img/pin-instagram.svg

<svg width="36" height="36" viewBox="0 0 36 36" fill="none" xmlns="http://www.w3.org/2000/svg">
<circle cx="18" cy="18" r="16.5" fill="url(#paint0_linear)" stroke="white" stroke-width="3"/>
<g clip-path="url(#clip0)">
<path d="M17.8008 11.0033C15.0193 11.1009 12.7086 13.271 12.4416 16.041C12.3871 16.595 12.4187 17.1318 12.5163 17.6456C12.5163 17.6456 12.5249 17.7059 12.5536 17.8207C12.6397 18.2053 12.7689 18.5785 12.9296 18.9287C13.4893 20.2549 14.7839 22.4737 17.6889 24.8878C17.8668 25.0371 18.128 25.0371 18.3089 24.8878C21.2138 22.4766 22.5084 20.2577 23.071 18.9258C23.2346 18.5756 23.3609 18.2053 23.447 17.8178C23.4729 17.7059 23.4843 17.6427 23.4843 17.6427C23.5504 17.2983 23.5848 16.9452 23.5848 16.5835C23.5848 13.4317 20.9755 10.8914 17.8008 11.0033ZM17.9989 19.3621C16.5005 19.3621 15.2863 18.1479 15.2863 16.6495C15.2863 15.1512 16.5005 13.9369 17.9989 13.9369C19.4973 13.9369 20.7115 15.1512 20.7115 16.6495C20.7115 18.1479 19.4973 19.3621 17.9989 19.3621Z" fill="white"/>
</g>
<defs>
<linearGradient id="paint0_linear" x1="6.98824" y1="27.6" x2="27.5294" y2="7.05882" gradientUnits="userSpaceOnUse">
<stop stop-color="#FFA94F"/>
<stop offset="1" stop-color="#C82F50"/>
</linearGradient>
<clipPath id="clip0">
<rect width="14" height="14" fill="white" transform="translate(11 11)"/>
</clipPath>
</defs>
</svg>

<svg width="36" height="36" fill="none" xmlns="http://www.w3.org/2000/svg"><circle cx="18" cy="18" r="16.5" fill="url(#paint0_linear)" stroke="#fff" stroke-width="3"/><g clip-path="url(#clip0)"><path d="M17.8 11.003c-2.78.098-5.091 2.268-5.358 5.038a5.62 5.62 0 0 0 .488 2.888c.56 1.326 1.854 3.545 4.759 5.959.178.15.439.15.62 0 2.905-2.411 4.2-4.63 4.762-5.962.164-.35.29-.72.376-1.108a5.608 5.608 0 0 0 .138-1.234 5.583 5.583 0 0 0-5.784-5.58zm.199 8.36a2.712 2.712 0 1 1 0-5.425 2.712 2.712 0 0 1 0 5.424z" fill="#fff"/></g><defs><linearGradient id="paint0_linear" x1="6.988" y1="27.6" x2="27.529" y2="7.059" gradientUnits="userSpaceOnUse"><stop stop-color="#FFA94F"/><stop offset="1" stop-color="#C82F50"/></linearGradient><clipPath id="clip0"><path fill="#fff" transform="translate(11 11)" d="M0 0h14v14H0z"/></clipPath></defs></svg>
